carriers/postHuMpl.svg

<svg width="128" height="64" viewBox="0 0 128 64" fill="none" xmlns="http://www.w3.org/2000/svg">
<rect width="128" height="64" rx="6" fill="white"/>
<path d="M45.9833 6H23.9709C23.9709 6 21.1904 6 21.1904 8.83696V64H48.6866V8.83696C48.7639 8.75815 48.7639 6 45.9833 6Z" fill="#EF3E33"/>
<path d="M24.7432 25.0703H30.5359L34.5522 38.1518L38.5685 25.0703H44.3612V45.0866H40.4994V29.7198L35.9425 45.0866H33.0075L28.605 29.7198V45.0866H24.7432V25.0703Z" fill="white"/>
<path d="M74.9674 6H52.955C52.955 6 50.2517 6 50.2517 8.83696V64H77.7479V8.83696C77.6707 8.75815 77.6707 6 74.9674 6Z" fill="#006330"/>
<path d="M56.6621 25.0703H63.9996C68.0931 25.0703 71.4915 26.41 71.4915 31.1382C71.4915 35.8665 68.3248 37.285 64.2313 37.285H61.0646V45.0866H56.7393L56.6621 25.0703ZM60.9874 33.5812H63.8451C65.3898 33.5812 66.8573 33.0296 66.8573 31.1382C66.8573 29.0893 64.7719 28.7741 63.15 28.7741H60.9101C60.9874 28.7741 60.9874 33.5812 60.9874 33.5812Z" fill="white"/>
<path d="M104.086 6H82.0735C82.0735 6 79.293 6 79.293 8.83696V64H106.789V8.83696C106.866 8.75815 106.866 6 104.086 6Z" fill="#2FB457"/>
<path d="M87.248 25.0703H91.5733V40.9888H99.6059V45.0866H87.248V25.0703Z" fill="white"/>
</svg>

<svg xmlns="http://www.w3.org/2000/svg" width="128" height="64" fill="none"><rect width="128" height="64" fill="#fff" rx="6"/><path fill="#EF3E33" d="M45.983 6H23.971s-2.78 0-2.78 2.837V64h27.496V8.837C48.764 8.758 48.764 6 45.983 6Z"/><path fill="#fff" d="M24.743 25.07h5.793l4.016 13.082L38.57 25.07h5.792v20.017H40.5V29.72l-4.556 15.367h-2.935L28.605 29.72v15.367h-3.862V25.07Z"/><path fill="#006330" d="M74.967 6H52.955s-2.703 0-2.703 2.837V64h27.496V8.837C77.67 8.758 77.67 6 74.968 6Z"/><path fill="#fff" d="M56.662 25.07H64c4.093 0 7.492 1.34 7.492 6.068 0 4.729-3.167 6.147-7.26 6.147h-3.167v7.802h-4.326l-.077-20.017Zm4.325 8.511h2.858c1.545 0 3.012-.551 3.012-2.443 0-2.049-2.085-2.364-3.707-2.364h-2.24c.077 0 .077 4.807.077 4.807Z"/><path fill="#2FB457" d="M104.086 6H82.073s-2.78 0-2.78 2.837V64h27.496V8.837c.077-.079.077-2.837-2.703-2.837Z"/><path fill="#fff" d="M87.248 25.07h4.325V40.99h8.033v4.098H87.248V25.07Z"/></svg>
